public/assets/imgs/page/homepage5/shuffle.svg

<svg width="20" height="20" viewBox="0 0 20 20" fill="none" xmlns="http://www.w3.org/2000/svg">
<g clip-path="url(#clip0_2_777)">
<path d="M16.3088 11.3126L15.1645 12.4569L17.0193 14.3124H16.7102C13.9718 14.3124 12.2303 13.0727 10.6847 11.4737L10.442 11.7553C10.1765 12.0628 9.90302 12.3792 9.61818 12.6972C10.4979 13.7159 11.5874 14.5325 12.812 15.0912C14.0366 15.6498 15.3674 15.9373 16.7134 15.9341H17.0193L15.1637 17.7896L16.308 18.9338L18.9727 16.2691C19.2761 15.9656 19.4466 15.554 19.4466 15.1248C19.4466 14.6957 19.2761 14.2841 18.9727 13.9806L16.3088 11.3126Z" fill="#006D77"/>
<path d="M16.7105 6.22025H17.0188L15.1641 8.07578L16.3084 9.22001L18.9731 6.55526C19.2765 6.25176 19.447 5.84018 19.447 5.41103C19.447 4.98188 19.2765 4.5703 18.9731 4.2668L16.3084 1.60205L15.1641 2.74628L17.0188 4.60182H16.7097C12.6984 4.60182 10.5055 6.76242 8.5156 9.0347C6.55002 6.81502 4.1871 4.60182 -0.00706482 4.60182V6.22025C3.60528 6.22025 5.55468 8.11058 7.44501 10.2663C5.55468 12.4221 3.60528 14.3124 -0.00706482 14.3124V15.9308C4.69286 15.9308 7.09462 13.1504 9.218 10.6985C11.2038 8.39542 13.0836 6.22025 16.7105 6.22025Z" fill="#006D77"/>
</g>
<defs>
<clipPath id="clip0_2_777">
<rect width="19.4212" height="19.4212" fill="white" transform="translate(0.025528 0.555664)"/>
</clipPath>
</defs>
</svg>

<svg width="20" height="20" fill="none" xmlns="http://www.w3.org/2000/svg"><g clip-path="url(#a)" fill="#006D77"><path d="m16.309 11.313-1.145 1.144 1.855 1.855h-.309c-2.738 0-4.48-1.24-6.025-2.838l-.243.281c-.265.308-.539.624-.824.942a9.345 9.345 0 0 0 7.095 3.237h.306l-1.855 1.856 1.144 1.144 2.665-2.665a1.619 1.619 0 0 0 0-2.288l-2.664-2.668Z"/><path d="M16.71 6.22h.309l-1.855 1.856 1.144 1.144 2.665-2.665a1.619 1.619 0 0 0 0-2.288l-2.665-2.665-1.144 1.144 1.855 1.856h-.31c-4.01 0-6.204 2.16-8.193 4.433C6.55 6.815 4.187 4.602-.007 4.602V6.22c3.612 0 5.562 1.89 7.452 4.046-1.89 2.156-3.84 4.046-7.452 4.046v1.619c4.7 0 7.102-2.78 9.225-5.232 1.986-2.304 3.866-4.479 7.492-4.479Z"/></g><defs><clipPath id="a"><path fill="#fff" transform="translate(.026 .556)" d="M0 0h19.421v19.421H0z"/></clipPath></defs></svg>
